src/animals-nature/animal-amphibian/1F438.svg

<svg id="emoji" viewBox="0 0 72 72" xmlns="http://www.w3.org/2000/svg">
  <g id="grid">
    <path fill="#b3b3b3" d="M68,4V68H4V4H68m4-4H0V72H72V0Z"/>
    <path fill="none" stroke="#00a5ff" stroke-miterlimit="10" stroke-width="0.1" d="M12.923,10.9583H59.0769A1.9231,1.9231,0,0,1,61,12.8814V59.0352a1.9231,1.9231,0,0,1-1.9231,1.9231H12.9231A1.9231,1.9231,0,0,1,11,59.0352V12.8813A1.923,1.923,0,0,1,12.923,10.9583Z"/>
    <rect x="16" y="4" rx="2.2537" width="40" height="64" fill="none" stroke="#00a5ff" stroke-miterlimit="10" stroke-width="0.1"/>
    <rect x="16" y="4" rx="2.2537" width="40" height="64" transform="translate(72) rotate(90)" fill="none" stroke="#00a5ff" stroke-miterlimit="10" stroke-width="0.1"/>
    <circle cx="36" cy="36" r="29" fill="none" stroke="#00a5ff" stroke-miterlimit="10" stroke-width="0.1"/>
  </g>
  <g id="color">
    <path fill="#B1CC33" stroke="none" stroke-linecap="round" stroke-linejoin="round" stroke-miterlimit="10" stroke-width="2" d="M39.3855,22.3566c0.4635,0,0.8719-0.305,0.9938-0.7522c0.5599-2.0537,2.5904-6.9293,7.6535-7.6044 c7.8343-1.0446,10.968,4.1783,10.968,8.3565c0,5.0604-2.0891,5.2228-3.4152,7.597c-0.2637,0.4721-0.4077,1.0587-0.0342,1.4497 c5.4428,5.697,8.1892,29.6023-19.5311,29.6023C10.9508,61.0057,9,41,16.4762,31.384c0.333-0.4283,0.391-1.0013,0.0259-1.4026 c-1.4705-1.6157-4.5595-5.6648-2.9399-9.7139c2.0891-5.2228,6.2674-6.2674,9.4011-6.2674c3.0031,0,7.9249,1.9186,9.2492,7.5947 c0.1057,0.4531,0.5276,0.7619,0.9928,0.7619L39.3855,22.3566z"/>
  </g>
  <g id="hair"/>
  <g id="skin"/>
  <g id="skin-shadow"/>
  <g id="line">
    <path fill="none" stroke="#000000" stroke-linecap="round" stroke-linejoin="round" stroke-miterlimit="10" stroke-width="2" d="M39.3855,22.3566c0.4635,0,0.8719-0.305,0.9938-0.7522c0.5599-2.0537,2.5904-6.9293,7.6535-7.6044 c7.8343-1.0446,10.968,4.1783,10.968,8.3565c0,5.0604-2.0891,5.2228-3.4152,7.597c-0.2637,0.4721-0.4077,1.0587-0.0342,1.4497 c5.4428,5.697,8.1892,29.6023-19.5311,29.6023C10.9508,61.0057,9,41,16.4762,31.384c0.333-0.4283,0.391-1.0013,0.0259-1.4026 c-1.4705-1.6157-4.5595-5.6648-2.9399-9.7139c2.0891-5.2228,6.2674-6.2674,9.4011-6.2674c3.0031,0,7.9249,1.9186,9.2492,7.5947 c0.1057,0.4531,0.5276,0.7619,0.9928,0.7619L39.3855,22.3566z"/>
    <path fill="none" stroke="#000000" stroke-linecap="round" stroke-linejoin="round" stroke-miterlimit="10" stroke-width="2" d="M22.441,48.4708c0,0,13.5794,12.5348,28.2033,0"/>
    <circle cx="22.441" cy="23.4012" r="3.1337" fill="#000000" stroke="none"/>
    <circle cx="49.5997" cy="23.4012" r="3.1337" fill="#000000" stroke="none"/>
    <circle cx="31.8421" cy="43.248" r="2.0891" fill="#000000" stroke="none"/>
    <circle cx="40.1986" cy="43.248" r="2.0891" fill="#000000" stroke="none"/>
  </g>
</svg>

<svg viewBox="0 0 72 72" xmlns="http://www.w3.org/2000/svg"><path fill="#b3b3b3" d="M68 4v64H4V4h64m4-4H0v72h72V0z"/><path fill="none" stroke="#00a5ff" stroke-miterlimit="10" stroke-width=".1" d="M12.923 10.958h46.154A1.923 1.923 0 0161 12.881v46.154a1.923 1.923 0 01-1.923 1.923H12.923A1.923 1.923 0 0111 59.035V12.881a1.923 1.923 0 011.923-1.923z"/><rect x="16" y="4" rx="2.254" width="40" height="64" fill="none" stroke="#00a5ff" stroke-miterlimit="10" stroke-width=".1"/><rect x="16" y="4" rx="2.254" width="40" height="64" transform="rotate(90 36 36)" fill="none" stroke="#00a5ff" stroke-miterlimit="10" stroke-width=".1"/><circle cx="36" cy="36" r="29" fill="none" stroke="#00a5ff" stroke-miterlimit="10" stroke-width=".1"/><g stroke-linecap="round" stroke-miterlimit="10" stroke-width="6" stroke="#fff" fill="none" stroke-linejoin="round"><path d="M39.386 22.357c.463 0 .871-.305.993-.753.56-2.053 2.59-6.929 7.654-7.604C55.867 12.955 59 18.178 59 22.357c0 5.06-2.09 5.222-3.415 7.597-.264.472-.408 1.058-.035 1.45 5.443 5.696 8.19 29.602-19.53 29.602C10.95 61.006 9 41 16.475 31.384c.333-.428.391-1.001.026-1.403-1.47-1.615-4.56-5.664-2.94-9.714C15.652 15.045 19.83 14 22.963 14c3.003 0 7.925 1.919 9.25 7.595.105.453.527.762.992.762h6.18zM22.441 48.47s13.58 12.536 28.203 0"/><circle cx="22.441" cy="23.401" r="3.134"/><circle cx="49.6" cy="23.401" r="3.134"/><circle cx="31.842" cy="43.248" r="2.089"/><circle cx="40.199" cy="43.248" r="2.089"/></g><path fill="#B1CC33" d="M39.386 22.357c.463 0 .871-.305.993-.753.56-2.053 2.59-6.929 7.654-7.604C55.867 12.955 59 18.178 59 22.357c0 5.06-2.09 5.222-3.415 7.597-.264.472-.408 1.058-.035 1.45 5.443 5.696 8.19 29.602-19.53 29.602C10.95 61.006 9 41 16.475 31.384c.333-.428.391-1.001.026-1.403-1.47-1.615-4.56-5.664-2.94-9.714C15.652 15.045 19.83 14 22.963 14c3.003 0 7.925 1.919 9.25 7.595.105.453.527.762.992.762h6.18z"/><path fill="none" stroke="#000" stroke-linecap="round" stroke-linejoin="round" stroke-miterlimit="10" stroke-width="2" d="M39.386 22.357c.463 0 .871-.305.993-.753.56-2.053 2.59-6.929 7.654-7.604C55.867 12.955 59 18.178 59 22.357c0 5.06-2.09 5.222-3.415 7.597-.264.472-.408 1.058-.035 1.45 5.443 5.696 8.19 29.602-19.53 29.602C10.95 61.006 9 41 16.475 31.384c.333-.428.391-1.001.026-1.403-1.47-1.615-4.56-5.664-2.94-9.714C15.652 15.045 19.83 14 22.963 14c3.003 0 7.925 1.919 9.25 7.595.105.453.527.762.992.762h6.18zM22.441 48.47s13.58 12.536 28.203 0"/><circle cx="22.441" cy="23.401" r="3.134"/><circle cx="49.6" cy="23.401" r="3.134"/><circle cx="31.842" cy="43.248" r="2.089"/><circle cx="40.199" cy="43.248" r="2.089"/></svg>
